public/new/iocn5.svg

<svg fill="none" height="80" viewBox="0 0 80 80" width="80" xmlns="http://www.w3.org/2000/svg" xmlns:xlink="http://www.w3.org/1999/xlink"><linearGradient id="a"><stop offset="0" stop-color="#34c796"/><stop offset="1" stop-color="#0b7a55"/></linearGradient><linearGradient id="b" gradientUnits="userSpaceOnUse" x1="40" x2="40" xlink:href="#a" y1="0" y2="80"/><linearGradient id="c" gradientUnits="userSpaceOnUse" x1="42.4808" x2="42.4808" xlink:href="#a" y1="20.6665" y2="57.6235"/><linearGradient id="d" gradientUnits="userSpaceOnUse" x1="31.2993" x2="31.2993" xlink:href="#a" y1="36.3066" y2="59.3342"/><circle cx="40" cy="40" r="39" stroke="url(#b)" stroke-width="2"/><path d="m52.509 49.3378.754 6.1094c.1933 1.6046-1.5274 2.726-2.9 1.8946l-6.6894-3.9826c-.464-.2707-.58-.8507-.3286-1.3147.9666-1.7787 1.4886-3.7893 1.4886-5.8 0-7.076-6.0706-12.8373-13.5333-12.8373-1.5273 0-3.016.232-4.408.696-.7154.232-1.4114-.4254-1.2374-1.16 1.7594-7.0374 8.5261-12.2767 16.6074-12.2767 9.4347 0 17.0713 7.134 17.0713 15.9307 0 5.22-2.6873 9.8406-6.8246 12.7406z" fill="url(#c)"/><path d="m41.9327 46.244c0 2.3006-.8507 4.4273-2.2813 6.1093-1.9141 2.32-4.9494 3.8087-8.3521 3.8087l-5.046 2.9966c-.8506.522-1.9333-.1933-1.8173-1.1793l.4833-3.8087c-2.5906-1.798-4.2533-4.6786-4.2533-7.9266 0-3.4027 1.8173-6.3994 4.6013-8.178 1.7207-1.1214 3.7894-1.7594 6.032-1.7594 5.8774 0 10.6334 4.4467 10.6334 9.9374z" fill="url(#d)"/></svg>

<svg width="80" height="80" viewBox="0 0 80 80" fill="none" xmlns="http://www.w3.org/2000/svg">
<circle cx="40" cy="40" r="39" stroke="url(#paint0_linear_206_3574)" stroke-width="2"/>
<path d="M52.509 49.3378L53.263 55.4472C53.4563 57.0518 51.7356 58.1732 50.363 57.3418L43.6736 53.3592C43.2096 53.0885 43.0936 52.5085 43.345 52.0445C44.3116 50.2658 44.8336 48.2552 44.8336 46.2445C44.8336 39.1685 38.763 33.4072 31.3003 33.4072C29.773 33.4072 28.2843 33.6392 26.8923 34.1032C26.1769 34.3352 25.4809 33.6778 25.6549 32.9432C27.4143 25.9058 34.181 20.6665 42.2623 20.6665C51.697 20.6665 59.3336 27.8005 59.3336 36.5972C59.3336 41.8172 56.6463 46.4378 52.509 49.3378Z" fill="url(#paint1_linear_206_3574)"/>
<path d="M41.9327 46.244C41.9327 48.5446 41.082 50.6713 39.6514 52.3533C37.7373 54.6733 34.702 56.162 31.2993 56.162L26.2533 59.1586C25.4027 59.6806 24.32 58.9653 24.436 57.9793L24.9193 54.1706C22.3287 52.3726 20.666 49.492 20.666 46.244C20.666 42.8413 22.4833 39.8446 25.2673 38.066C26.988 36.9446 29.0567 36.3066 31.2993 36.3066C37.1767 36.3066 41.9327 40.7533 41.9327 46.244Z" fill="url(#paint2_linear_206_3574)"/>
<defs>
<linearGradient id="paint0_linear_206_3574" x1="40" y1="0" x2="40" y2="80" gradientUnits="userSpaceOnUse">
<stop stop-color="#34C796"/>
<stop offset="1" stop-color="#0B7A55"/>
</linearGradient>
<linearGradient id="paint1_linear_206_3574" x1="42.4808" y1="20.6665" x2="42.4808" y2="57.6235" gradientUnits="userSpaceOnUse">
<stop stop-color="#34C796"/>
<stop offset="1" stop-color="#0B7A55"/>
</linearGradient>
<linearGradient id="paint2_linear_206_3574" x1="31.2993" y1="36.3066" x2="31.2993" y2="59.3342" gradientUnits="userSpaceOnUse">
<stop stop-color="#34C796"/>
<stop offset="1" stop-color="#0B7A55"/>
</linearGradient>
</defs>
</svg>
